X:589
T:Boys From Mullingar., The
T:na buacailli.de as .muileann-cearr.
N:"Spirited." "Collected from J. O'Neill"
B:O'Neill's 589
M:6/8
L:1/8
Q:105
K:D
(F/G/)|A2 A F2 A|d2e fgf|e2 A A2F|(G3-G2) (F/G/)|
A2 A F2 A|d2e fgf|e2 A A2 c|(d3-d2)||
(ag)|f2 f f^ef|g2f e^de|f2d A2 F|G3-G2 a|
f2 f f2A|d2 e fgf|e2A A2c|d2-d2 (a/g/)|
f2 f f^ef|g2 f e^de|fdA AGF|G3-G2 (FG)|
ABA AFA|d2 e fgf|ecA ABKc|d3-d2||


